X: 12
T:Bim Rssli Adolf
M:3/4
L:1/8
R:Mazurka
A:Schweiz
S:Rees Gwerder
C:trad
D:Rees Gwerder: A g'hrige Schnupf
Z:Stephan Steiner
K:G
G|GFGAB2|BAB^cd2|A2ABcd|GFGAB2|GFGAB2|BAB^cd2|A2ABcd|G2g2z:|
|:B|d2BdA^c|BBGDGB|dcBdAd|GBGDGB|ddBdA^c|BBGDGB|dcBdAd|G2g2z:|z
|:DGBGB^c|d^cBGB^c|dBeAcd|Gd^cGB2|DGBGB^c|d^cBGB^c|dBeAcd|1G2g2z2:|2G2g2
z
|:d|d^cdA^cB|d^cBGB^c|dBeAcd|Gd^cGB2|d^cdA^cB|d^cBGB^c|dBeAcd|G2g2z:|
